src/assets/Icon/desktop-logo.svg

<svg width="103" height="50" viewBox="0 0 103 50" fill="none" xmlns="http://www.w3.org/2000/svg">
<rect width="50" height="50" rx="8" fill="white"/>
<path d="M13 41V9C13 6.79086 11.2091 5 9 5C6.79086 5 5 6.79086 5 9V41C5 43.2091 6.79086 45 9 45C11.2091 45 13 43.2091 13 41Z" fill="#1591EA"/>
<path d="M23.6667 41V9C23.6667 6.79086 21.8758 5 19.6667 5C17.4575 5 15.6667 6.79086 15.6667 9V41C15.6667 43.2091 17.4575 45 19.6667 45C21.8758 45 23.6667 43.2091 23.6667 41Z" fill="#FF2C2C"/>
<path d="M34.3333 41V9C34.3333 6.79086 32.5425 5 30.3333 5C28.1242 5 26.3333 6.79086 26.3333 9V41C26.3333 43.2091 28.1242 45 30.3333 45C32.5425 45 34.3333 43.2091 34.3333 41Z" fill="#9D00FF"/>
<path d="M45 41V9C45 6.79086 43.2091 5 41 5C38.7909 5 37 6.79086 37 9V41C37 43.2091 38.7909 45 41 45C43.2091 45 45 43.2091 45 41Z" fill="#FF8DA1"/>
<path d="M53.6406 16.8359H56.1016V28.8359C56.1016 29.4453 56.3164 29.9648 56.7461 30.3945C57.1758 30.8242 57.6914 31.0391 58.293 31.0391H66.5547V33.5H58.293C57.4414 33.5 56.6602 33.293 55.9492 32.8789C55.2461 32.457 54.6836 31.8945 54.2617 31.1914C53.8477 30.4805 53.6406 29.6953 53.6406 28.8359V16.8359ZM67.8438 25.7422C67.8438 24.9375 68.0391 24.2031 68.4297 23.5391C68.8281 22.875 69.3594 22.3477 70.0234 21.957C70.6875 21.5586 71.4219 21.3594 72.2266 21.3594H74.875C75.6797 21.3594 76.4141 21.5586 77.0781 21.957C77.7422 22.3477 78.2695 22.875 78.6602 23.5391C79.0586 24.2031 79.2578 24.9375 79.2578 25.7422V29.1172C79.2578 29.9219 79.0586 30.6562 78.6602 31.3203C78.2695 31.9844 77.7422 32.5156 77.0781 32.9141C76.4141 33.3047 75.6797 33.5 74.875 33.5H72.2266C71.4219 33.5 70.6875 33.3047 70.0234 32.9141C69.3594 32.5156 68.8281 31.9844 68.4297 31.3203C68.0391 30.6562 67.8438 29.9219 67.8438 29.1172V25.7422ZM70.3164 29.0938C70.3164 29.625 70.5039 30.082 70.8789 30.4648C71.2539 30.8398 71.7031 31.0273 72.2266 31.0273H74.875C75.4062 31.0273 75.8555 30.8398 76.2227 30.4648C76.5977 30.082 76.7852 29.625 76.7852 29.0938V25.7656C76.7852 25.2344 76.5977 24.7812 76.2227 24.4062C75.8555 24.0234 75.4062 23.832 74.875 23.832H72.2266C71.7031 23.832 71.2539 24.0234 70.8789 24.4062C70.5039 24.7812 70.3164 25.2344 70.3164 25.7656V29.0938ZM81.9531 24.7578C81.9531 24.1328 82.1094 23.5625 82.4219 23.0469C82.7422 22.5312 83.1641 22.1211 83.6875 21.8164C84.2188 21.5117 84.8047 21.3594 85.4453 21.3594H88.1523V23.8203H85.4453C85.1641 23.8203 84.9219 23.918 84.7188 24.1133C84.5234 24.3008 84.4258 24.5312 84.4258 24.8047V33.5H81.9531V24.7578ZM90.0391 25.7188C90.0391 24.9141 90.2344 24.1836 90.625 23.5273C91.0234 22.8711 91.5547 22.3477 92.2188 21.957C92.8828 21.5586 93.6172 21.3594 94.4219 21.3594H101.195V33.5H98.7227V23.832H94.4219C93.8984 23.832 93.4492 24.0195 93.0742 24.3945C92.6992 24.7617 92.5117 25.2109 92.5117 25.7422V29.0938C92.5117 29.625 92.6992 30.082 93.0742 30.4648C93.4492 30.8398 93.8984 31.0273 94.4219 31.0273H97.3164V33.5H94.4219C93.6172 33.5 92.8828 33.3047 92.2188 32.9141C91.5547 32.5156 91.0234 31.9844 90.625 31.3203C90.2344 30.6562 90.0391 29.9219 90.0391 29.1172V25.7188Z" fill="#0C8CE9"/>
</svg>

<svg xmlns="http://www.w3.org/2000/svg" width="103" height="50" fill="none" xmlns:v="https://vecta.io/nano"><path d="M13 41V9a4 4 0 1 0-8 0v32a4 4 0 1 0 8 0z" fill="#1591ea"/><path d="M23.667 41V9a4 4 0 0 0-8 0v32a4 4 0 1 0 8 0z" fill="#ff2c2c"/><path d="M34.333 41V9a4 4 0 0 0-8 0v32a4 4 0 1 0 8 0z" fill="#9d00ff"/><path d="M45 41V9a4 4 0 1 0-8 0v32a4 4 0 1 0 8 0z" fill="#ff8da1"/><path d="M53.641 16.836h2.461v12a2.12 2.12 0 0 0 .645 1.559 2.11 2.11 0 0 0 1.547.645h8.262V33.5h-8.262c-.852 0-1.633-.207-2.344-.621a4.85 4.85 0 0 1-1.687-1.687c-.414-.711-.621-1.496-.621-2.356v-12zm14.203 8.906c0-.805.195-1.539.586-2.203a4.48 4.48 0 0 1 1.594-1.582 4.2 4.2 0 0 1 2.203-.598h2.648a4.2 4.2 0 0 1 2.203.598 4.39 4.39 0 0 1 1.582 1.582 4.2 4.2 0 0 1 .598 2.203v3.375a4.2 4.2 0 0 1-.598 2.203 4.48 4.48 0 0 1-1.582 1.594c-.664.391-1.398.586-2.203.586h-2.648c-.805 0-1.539-.195-2.203-.586a4.58 4.58 0 0 1-1.594-1.594c-.391-.664-.586-1.398-.586-2.203v-3.375zm2.473 3.352a1.89 1.89 0 0 0 .563 1.371c.375.375.824.563 1.348.563h2.648c.531 0 .981-.187 1.348-.562a1.89 1.89 0 0 0 .563-1.371v-3.328a1.85 1.85 0 0 0-.562-1.359c-.367-.383-.817-.574-1.348-.574h-2.648a1.82 1.82 0 0 0-1.348.574 1.85 1.85 0 0 0-.562 1.359v3.328zm11.637-4.336c0-.625.156-1.195.469-1.711a3.6 3.6 0 0 1 1.266-1.23 3.47 3.47 0 0 1 1.758-.457h2.707v2.461h-2.707a1.01 1.01 0 0 0-.727.293.92.92 0 0 0-.293.691V33.5h-2.473v-8.742zm8.086.961c0-.805.195-1.535.586-2.192.398-.656.93-1.18 1.594-1.57a4.2 4.2 0 0 1 2.203-.598h6.773V33.5h-2.472v-9.668h-4.301c-.523 0-.973.188-1.348.563-.375.367-.562.816-.562 1.348v3.352a1.89 1.89 0 0 0 .563 1.371c.375.375.824.563 1.348.563h2.895V33.5h-2.895c-.805 0-1.539-.195-2.203-.586a4.58 4.58 0 0 1-1.594-1.594c-.391-.664-.586-1.398-.586-2.203v-3.398z" fill="#0c8ce9"/></svg>
